svg/u26c4.svg

<svg viewBox="0 0 128 128" xmlns="http://www.w3.org/2000/svg">
  <path d="M90.39,80.18c0,0,12.95-10.56,14.71-11.83c1.3-0.93,3.02-2.13,4.58-0.42 c1.51,1.65-0.07,3.78-1.27,4.93c-1.62,1.55-15.06,12.67-15.06,12.67L90.39,80.18z" fill="#474D50"/>
  <path d="M98.27,65.47c-2.08,0.6-1.9,3.03-1.62,5.42c0.28,2.39,0.35,6.48,0.35,6.48l4.58-4.79 c0,0-0.21-1.69-0.21-3.17S100.95,64.7,98.27,65.47z" fill="#474D50"/>
  <path d="M37.1,77.65c0,0-12.04-10.21-13.09-11.26c-1.41-1.41-3.73-2.39-5.21-0.63 c-1.47,1.75-0.39,3.76,0.92,5.07c2.46,2.46,15.2,13.23,15.2,13.23L37.1,77.65z" fill="#474D50"/>
  <path d="M27.81,72.65c0,0,0.28-3.59,0.42-5.07c0.14-1.48,0.99-4.08,3.38-3.17c2.01,0.77,1.62,3.1,1.34,5 c-0.2,1.32-0.99,6.05-0.99,6.05L27.81,72.65z" fill="#474D50"/>
  <path d="M67.23,4.23C58.49,3.7,51.68,5.29,51.39,6.56s-0.35,19.64-0.35,19.64s-12.1,0.5-12.32,3.59 c-0.21,3.03,6.55,5.14,24.64,5.63s26.67,0.06,27.1-3.38c0.49-3.94-10.49-4.58-10.49-4.58s2.53-18.72,2.18-19.29 S76.52,4.8,67.23,4.23z" fill="#474D50"/>
  <path d="M65.54,21.83c-6.75-0.27-14.5,0.42-14.5,0.42v3.94c0,0,6.19-0.42,13.87-0.21s15.06,1.48,15.06,1.48 l0.49-3.8C80.46,23.66,74.48,22.18,65.54,21.83z" fill="#A42718"/>
  <path d="M43.23,69.84c0,0-6.03-5.79-5.35-18.51c0.7-13.09,9.85-18.16,12.53-18.93 c2.67-0.77,8.66-1.27,14.85-0.99c6.19,0.28,14.29,1.2,15.77,1.83s10,6.34,10.07,19.38c0.07,12.3-6.83,18.21-6.83,18.21 s12.55,8.92,14.05,21.02c1.5,12.11-4.31,22.54-14.36,28.06c-11.45,6.29-31.63,7.13-44.02-2.53c-8.85-6.91-11.92-17.55-10.32-27.12 C31.59,78.41,43.23,69.84,43.23,69.84z" fill="#E0E0E0"/>
  <path d="M51.84,45.93c-2.91-0.52-3.99,1.92-4.18,3.71c-0.19,1.78,0.44,4.21,2.39,4.55 c2.11,0.38,3.8-1.17,4.08-4.09C54.39,47.55,53.2,46.17,51.84,45.93z" fill="#303030"/>
  <path d="M72.91,50.2c-0.22,2.64,1.43,4.22,3.24,4.27c1.88,0.05,3.29-1.57,3.44-4.31 c0.14-2.53-1.27-3.8-3.2-3.81C74.41,46.34,73.1,47.99,72.91,50.2z" fill="#303030"/>
  <path d="M56.43,60.47c-1.13,0.95,0.07,2.83,2.53,3.94c2.57,1.16,6.9,1.51,10.31-0.21 c1.76-0.89,2.71-2.46,1.79-3.24c-0.77-0.65-1.83-0.22-2.9,0.35c-1.11,0.6-2.99,1-4.49,0.95c-1.5-0.05-3.45-0.81-4.15-1.23 C58.4,60.37,57.51,59.56,56.43,60.47z" fill="#303030"/>
  <path d="M60.05,52.54c-0.14,0.56,2.6,7.33,3.91,7.19c1.3-0.14,3.45-7.23,3.27-7.75 c-0.18-0.53-2.32-0.77-3.55-0.74S60.19,51.98,60.05,52.54z" fill="#FFA72B"/>
  <path d="M59.37,84.1c0,3.45,2.97,3.85,4.3,3.82c1.96-0.05,3.66-1.48,3.55-3.87s-1.38-3.49-3.76-3.61 C61.33,80.34,59.37,81.87,59.37,84.1z" fill="#303030"/>
  <path d="M59.96,98.58c-0.04,2.12,3.16,3.23,4.88,2.97c2.12-0.32,3.73-2.85,2.97-5.09 c-0.85-2.49-3.45-2.49-4.77-2.23C61.71,94.49,60.01,95.66,59.96,98.58z" fill="#303030"/>
</svg>

<svg viewBox="0 0 128 128" xmlns="http://www.w3.org/2000/svg">
  <defs/>
  <path d="M90.39,80.18 C90.39,80.18 103.34,69.62 105.1,68.35 C106.4,67.42 108.12,66.22 109.68,67.93 C111.19,69.58 109.61,71.71 108.41,72.86 C106.79,74.41 93.35,85.53 93.35,85.53 L90.39,80.18 Z" fill="#474D50"/>
  <path d="M98.27,65.47 C96.19,66.07 96.37,68.5 96.65,70.89 C96.93,73.28 97,77.37 97,77.37 L101.58,72.58 C101.58,72.58 101.37,70.89 101.37,69.41 C101.37,67.93 100.95,64.7 98.27,65.47 Z" fill="#474D50"/>
  <path d="M37.1,77.65 C37.1,77.65 25.06,67.44 24.01,66.39 C22.6,64.98 20.28,64 18.8,65.76 C17.33,67.51 18.41,69.52 19.72,70.83 C22.18,73.29 34.92,84.06 34.92,84.06 L37.1,77.65 Z" fill="#474D50"/>
  <path d="M27.81,72.65 C27.81,72.65 28.09,69.06 28.23,67.58 C28.37,66.1 29.22,63.5 31.61,64.41 C33.62,65.18 33.23,67.51 32.95,69.41 C32.75,70.73 31.96,75.46 31.96,75.46 L27.81,72.65 Z" fill="#474D50"/>
  <path d="M67.23,4.23 C58.49,3.7 51.68,5.29 51.39,6.56 C51.1,7.83 51.04,26.2 51.04,26.2 C51.04,26.2 38.94,26.7 38.72,29.79 C38.51,32.82 45.27,34.93 63.36,35.42 C81.45,35.91 90.03,35.48 90.46,32.04 C90.95,28.1 79.97,27.46 79.97,27.46 C79.97,27.46 82.5,8.74 82.15,8.17 C81.8,7.6 76.52,4.8 67.23,4.23 Z" fill="#474D50"/>
  <path d="M65.54,21.83 C58.79,21.56 51.04,22.25 51.04,22.25 L51.04,26.19 C51.04,26.19 57.23,25.77 64.91,25.98 C72.59,26.19 79.97,27.46 79.97,27.46 L80.46,23.66 C80.46,23.66 74.48,22.18 65.54,21.83 Z" fill="#A42718"/>
  <path d="M43.23,69.84 C43.23,69.84 37.2,64.05 37.88,51.33 C38.58,38.24 47.73,33.17 50.41,32.4 C53.08,31.63 59.07,31.13 65.26,31.41 C71.45,31.69 79.55,32.61 81.03,33.24 C82.51,33.87 91.03,39.58 91.1,52.62 C91.17,64.92 84.27,70.83 84.27,70.83 C84.27,70.83 96.82,79.75 98.32,91.85 C99.82,103.96 94.01,114.39 83.96,119.91 C72.51,126.2 52.33,127.04 39.94,117.38 C31.09,110.47 28.02,99.83 29.62,90.26 C31.59,78.41 43.23,69.84 43.23,69.84 Z" fill="#E0E0E0"/>
  <path d="M51.84,45.93 C48.93,45.41 47.85,47.85 47.66,49.64 C47.47,51.42 48.1,53.85 50.05,54.19 C52.16,54.57 53.85,53.02 54.13,50.1 C54.39,47.55 53.2,46.17 51.84,45.93 Z" fill="#303030"/>
  <path d="M72.91,50.2 C72.69,52.84 74.34,54.42 76.15,54.47 C78.03,54.52 79.44,52.9 79.59,50.16 C79.73,47.63 78.32,46.36 76.39,46.35 C74.41,46.34 73.1,47.99 72.91,50.2 Z" fill="#303030"/>
  <path d="M56.43,60.47 C55.3,61.42 56.5,63.3 58.96,64.41 C61.53,65.57 65.86,65.92 69.27,64.2 C71.03,63.31 71.98,61.74 71.06,60.96 C70.29,60.31 69.23,60.74 68.16,61.31 C67.05,61.91 65.17,62.31 63.67,62.26 C62.17,62.21 60.22,61.45 59.52,61.03 C58.4,60.37 57.51,59.56 56.43,60.47 Z" fill="#303030"/>
  <path d="M60.05,52.54 C59.91,53.1 62.65,59.87 63.96,59.73 C65.26,59.59 67.41,52.5 67.23,51.98 C67.05,51.45 64.91,51.21 63.68,51.24 C62.45,51.27 60.19,51.98 60.05,52.54 Z" fill="#FFA72B"/>
  <path d="M59.37,84.1 C59.37,87.55 62.34,87.95 63.67,87.92 C65.63,87.87 67.33,86.44 67.22,84.05 C67.11,81.66 65.84,80.56 63.46,80.44 C61.33,80.34 59.37,81.87 59.37,84.1 Z" fill="#303030"/>
  <path d="M59.96,98.58 C59.92,100.7 63.12,101.81 64.84,101.55 C66.96,101.23 68.57,98.7 67.81,96.46 C66.96,93.97 64.36,93.97 63.04,94.23 C61.71,94.49 60.01,95.66 59.96,98.58 Z" fill="#303030"/>
</svg>
